build/assets/common.blocks/home/home__iPhone-X.svg

<svg width="433" height="860" viewBox="0 0 433 860" version="1.1" xmlns="http://www.w3.org/2000/svg" xmlns:xlink="http://www.w3.org/1999/xlink">
<title>IPhone_X</title>
<desc>Created using Figma</desc>
<g id="Canvas" transform="translate(2442 495)">
<g id="IPhone_X">
<g id="Canvas">
<g id="IPhone X">
<g id="bg">
<g id="g5754">
<g id="rect5351 5 5">
<g id="Vector">
<use xlink:href="#path0_fill" transform="translate(-2028.9 -291.394)"/>
</g>
</g>
</g>
<g id="g5503">
<g id="rect5351">
<g id="Vector">
<use xlink:href="#path1_fill" transform="translate(-2442 -374.506)"/>
</g>
</g>
</g>
<g id="g5624">
<g id="rect5351 5">
<g id="Vector">
<use xlink:href="#path2_fill" transform="translate(-2442 -311.859)"/>
</g>
</g>
</g>
<g id="g5624 1">
<g id="rect5351 5 6">
<g id="Vector">
<use xlink:href="#path3_fill" transform="translate(-2442 -233.173)"/>
</g>
</g>
</g>
<g id="screen">
<g id="iphone x flat no buttons">
<g id="XMLID 353">
<g id="XMLID 354">
<g id="Vector">
<use xlink:href="#path4_fill" transform="translate(-2438.29 -494.414)"/>
</g>
</g>
</g>
</g>
</g>
<g id="Group">
<g id="path5267 7 7">
<g id="Vector">
<use xlink:href="#path5_fill" transform="translate(-2158.85 -475.919)" fill="#0F0F0F"/>
</g>
</g>
<g id="g5823">
<g id="rect5261">
<g id="Vector">
<use xlink:href="#path6_fill" transform="translate(-2253.57 -469.116)" fill="#1E1E1E"/>
</g>
</g>
<g id="path5263">
<g id="Vector">
<use xlink:href="#path7_fill" transform="translate(-2187.46 -472.362)" fill="#2B2B2B"/>
</g>
</g>
<g id="path5265">
<g id="Vector">
<use xlink:href="#path8_fill" transform="translate(-2186.24 -471.152)" fill="#0A0D13"/>
</g>
</g>
<g id="path5267">
<g id="Vector">
<use xlink:href="#path9_fill" transform="translate(-2185.08 -469.991)" fill="#091427"/>
</g>
</g>
<g id="path5267 7">
<g id="Vector">
<use xlink:href="#path10_fill" transform="translate(-2271.3 -470.5)" fill="#0F0F0F"/>
</g>
</g>
<g id="path5267 7 9">
<g id="Vector">
<use xlink:href="#path11_fill" transform="translate(-2303.44 -472.707)" fill="#101010"/>
</g>
</g>
</g>
</g>
</g>
</g>
</g>
</g>
</g>
<defs>
<path id="path0_fill" d="M 17.8443 1.29157e-13C 18.9803 1.29157e-13 19.8951 0.90927 19.8951 2.04097L 19.8951 96.9049C 19.8951 98.0365 18.9803 98.9482 17.8443 98.9482L 2.05082 98.9482C 0.914964 98.9482 8.41523e-15 98.0365 8.41523e-15 96.9049L 8.41523e-15 2.04097C 8.41523e-15 0.90927 0.914964 1.29157e-13 2.05082 1.29157e-13L 17.8443 1.29157e-13Z"/>
<path id="path1_fill" d="M 17.8452 0L 2.0503 0C 0.917949 0 0 0.914585 0 2.04278L 0 31.5496C 0 32.6778 0.917949 33.5925 2.0503 33.5925L 17.8452 33.5925C 18.9776 33.5925 19.8955 32.6778 19.8955 31.5496L 19.8955 2.04278C 19.8955 0.914585 18.9776 0 17.8452 0Z"/>
<path id="path2_fill" d="M 2.05083 8.27283e-15C 0.914969 8.27283e-15 0 0.909269 0 2.04098L 0 60.5258C 0 61.6574 0.914969 62.5691 2.05083 62.5691L 17.8443 62.5691C 18.9803 62.5691 19.8951 61.6574 19.8951 60.5258L 19.8951 2.04098C 19.8951 0.909269 18.9803 8.27283e-15 17.8443 8.27283e-15L 2.05083 8.27283e-15Z"/>
<path id="path3_fill" d="M 2.05083 8.27283e-15C 0.914969 8.27283e-15 0 0.909269 0 2.04098L 0 60.5258C 0 61.6574 0.914969 62.5691 2.05083 62.5691L 17.8443 62.5691C 18.9803 62.5691 19.8951 61.6574 19.8951 60.5258L 19.8951 2.04098C 19.8951 0.909269 18.9803 8.27283e-15 17.8443 8.27283e-15L 2.05083 8.27283e-15Z"/>
<path id="path4_fill" d="M 424.341 61.7629C 424.341 27.2905 396.452 -7.20397e-23 361.831 -7.20397e-23L 62.8697 -7.20397e-23C 28.2493 8.50485e-15 0 27.4102 0 61.7629L 0 174.636L 0 796.453C 0 830.926 28.2493 859.414 62.8697 859.414L 361.831 859.414C 396.452 859.414 424.341 830.926 424.341 796.453L 424.341 61.7629ZM 257.369 22.8619C 260.254 22.8619 262.658 25.2558 262.658 28.1285C 262.658 31.0012 260.254 33.3951 257.369 33.3951C 254.484 33.3951 252.081 31.0012 252.081 28.1285C 252.081 25.2558 254.484 22.8619 257.369 22.8619ZM 401.501 793.701C 401.501 814.648 385.032 831.884 364.115 831.884L 64.7931 831.884C 43.7563 831.884 26.4462 814.648 26.4462 793.701L 26.4462 59.6084C 26.4462 38.7814 43.7563 22.7422 64.7931 22.7422L 99.4135 22.7422C 106.746 22.7422 109.391 22.2634 109.872 31.4799C 110.353 41.0556 116.964 47.2797 125.86 50.0327C 128.865 50.9902 132.231 51.469 135.476 51.469L 141.967 51.469L 287.061 51.469L 293.552 51.469C 296.798 51.469 300.164 50.7509 303.17 49.7933C 312.065 47.0404 318.796 41.2949 319.157 31.7193C 319.637 22.5027 322.282 22.7422 329.615 22.7422L 363.875 22.7422C 384.912 22.7422 401.261 38.7814 401.261 59.6084L 401.261 793.701L 401.501 793.701Z"/>
<path id="path5_fill" d="M 19.3921 9.55464C 19.3921 12.0826 18.3756 14.5074 16.5649 16.2983C 14.7542 18.0891 12.2971 19.0999 9.73178 19.1092C 7.16641 19.1184 4.70186 18.1256 2.87787 16.348C 1.05389 14.5703 0.019144 12.1528 0.00026297 9.62495C -0.018618 7.09707 0.979907 4.66483 2.77714 2.86092C 4.57437 1.05703 7.02383 0.0284914 9.58906 0.000583046C 12.1543 -0.0273254 14.6261 0.947669 16.4634 2.71202C 18.3006 4.47639 19.3534 6.88631 19.3911 9.41398L 9.69609 9.55464L 19.3921 9.55464Z"/>
<path id="path6_fill" d="M 48.3797 0L 3.27543 0C 1.46645 0 0 1.46109 0 3.26342C 0 5.06576 1.46645 6.52685 3.27543 6.52685L 48.3797 6.52685C 50.1886 6.52685 51.6551 5.06576 51.6551 3.26342C 51.6551 1.46109 50.1886 0 48.3797 0Z"/>
<path id="path7_fill" d="M 6.11292 12.181C 9.489 12.181 12.2258 9.45422 12.2258 6.09052C 12.2258 2.72682 9.489 0 6.11292 0C 2.73685 0 0 2.72682 0 6.09052C 0 9.45422 2.73685 12.181 6.11292 12.181Z"/>
<path id="path8_fill" d="M 4.89793 9.75995C 7.60299 9.75995 9.79587 7.57512 9.79587 4.87998C 9.79587 2.18485 7.60299 0 4.89793 0C 2.19288 0 -1.2764e-13 2.18485 -1.2764e-13 4.87998C -1.2764e-13 7.57512 2.19288 9.75995 4.89793 9.75995Z"/>
<path id="path9_fill" d="M 3.73183 7.43632C 5.79286 7.43632 7.46368 5.77165 7.46368 3.71817C 7.46368 1.66467 5.79286 0 3.73183 0C 1.67079 0 2.40767e-13 1.66467 2.40767e-13 3.71817C 2.40767e-13 5.77165 1.67079 7.43632 3.73183 7.43632Z"/>
<path id="path10_fill" d="M 9.61151 4.78813C 9.61151 6.05497 9.10761 7.27018 8.21018 8.16762C 7.31276 9.06506 6.09494 9.57157 4.82345 9.57623C 3.55195 9.5809 2.33043 9.08332 1.42638 8.19249C 0.522354 7.30166 0.00948858 6.09019 0.000130335 4.82338C -0.00922777 3.55657 0.485687 2.3377 1.37646 1.4337C 2.26725 0.529712 3.48128 0.0142777 4.75271 0.000292206C 6.02413 -0.0136942 7.2493 0.474908 8.15989 1.35908C 9.07048 2.24327 9.59227 3.45096 9.61099 4.71765L 4.80576 4.78813L 9.61151 4.78813Z"/>
<path id="path11_fill" d="M 14.4979 7.10777C 14.4979 8.98835 13.7378 10.7923 12.3841 12.1245C 11.0304 13.4567 9.19346 14.2086 7.27556 14.2155C 5.35768 14.2224 3.51515 13.4838 2.15153 12.1614C 0.787895 10.839 0.0143123 9.0406 0.000196604 7.16009C -0.0139191 5.27957 0.732581 3.47021 2.07621 2.12828C 3.41984 0.786331 5.25107 0.0211948 7.16886 0.000433712C 9.08666 -0.0203271 10.9347 0.70498 12.3082 2.0175C 13.6817 3.33002 14.4688 5.12278 14.497 7.00315L 7.24889 7.10777L 14.4979 7.10777Z"/>
</defs>
</svg>

<svg width="433" height="860" xmlns="http://www.w3.org/2000/svg" xmlns:xlink="http://www.w3.org/1999/xlink"><use xlink:href="#path0_fill" transform="translate(413.1 203.606)"/><use xlink:href="#path1_fill" transform="translate(0 120.494)"/><use xlink:href="#path2_fill" transform="translate(0 183.141)"/><use xlink:href="#path3_fill" transform="translate(0 261.827)"/><use xlink:href="#path4_fill" transform="translate(3.71 .586)"/><use xlink:href="#path5_fill" transform="translate(283.15 19.081)" fill="#0F0F0F"/><use xlink:href="#path6_fill" transform="translate(188.43 25.884)" fill="#1E1E1E"/><use xlink:href="#path7_fill" transform="translate(254.54 22.638)" fill="#2B2B2B"/><use xlink:href="#path8_fill" transform="translate(255.76 23.848)" fill="#0A0D13"/><use xlink:href="#path9_fill" transform="translate(256.92 25.009)" fill="#091427"/><use xlink:href="#path10_fill" transform="translate(170.7 24.5)" fill="#0F0F0F"/><use xlink:href="#path11_fill" transform="translate(138.56 22.293)" fill="#101010"/><defs><path id="path0_fill" d="M17.844 0c1.136 0 2.051.91 2.051 2.041v94.864a2.043 2.043 0 0 1-2.05 2.043H2.05A2.043 2.043 0 0 1 0 96.905V2.04C0 .909.915 0 2.05 0h15.794z"/><path id="path1_fill" d="M17.845 0H2.05C.918 0 0 .915 0 2.043V31.55c0 1.128.918 2.043 2.05 2.043h15.795c1.133 0 2.05-.915 2.05-2.043V2.043A2.047 2.047 0 0 0 17.845 0z"/><path id="path2_fill" d="M2.05 0C.916 0 0 .91 0 2.041v58.485c0 1.131.915 2.043 2.05 2.043h15.794c1.136 0 2.051-.912 2.051-2.043V2.04A2.04 2.04 0 0 0 17.845 0H2.05z"/><path id="path3_fill" d="M2.05 0C.916 0 0 .91 0 2.041v58.485c0 1.131.915 2.043 2.05 2.043h15.794c1.136 0 2.051-.912 2.051-2.043V2.04A2.04 2.04 0 0 0 17.845 0H2.05z"/><path id="path4_fill" d="M424.341 61.763C424.341 27.29 396.452 0 361.831 0H62.87C28.25 0 0 27.41 0 61.763v734.69c0 34.473 28.25 62.961 62.87 62.961H361.83c34.621 0 62.51-28.488 62.51-62.961V61.763zM257.369 22.862c2.885 0 5.289 2.394 5.289 5.267 0 2.872-2.404 5.266-5.289 5.266s-5.288-2.394-5.288-5.267c0-2.872 2.403-5.266 5.288-5.266zM401.501 793.7c0 20.947-16.469 38.183-37.386 38.183H64.793c-21.037 0-38.347-17.236-38.347-38.183V59.608c0-20.827 17.31-36.866 38.347-36.866h34.62c7.333 0 9.978-.479 10.459 8.738.481 9.576 7.092 15.8 15.988 18.553 3.005.957 6.371 1.436 9.616 1.436H293.552c3.246 0 6.612-.718 9.618-1.676 8.895-2.753 15.626-8.498 15.987-18.074.48-9.216 3.125-8.977 10.458-8.977h34.26c21.037 0 37.386 16.04 37.386 36.866v734.093h.24z"/><path id="path5_fill" d="M19.392 9.555a9.484 9.484 0 0 1-2.827 6.743 9.769 9.769 0 0 1-6.833 2.811 9.771 9.771 0 0 1-6.854-2.761A9.487 9.487 0 0 1 0 9.625a9.482 9.482 0 0 1 2.777-6.764A9.767 9.767 0 0 1 9.59 0a9.773 9.773 0 0 1 6.874 2.711 9.488 9.488 0 0 1 2.928 6.702l-9.695.14h9.696z"/><path id="path6_fill" d="M48.38 0H3.275A3.27 3.27 0 0 0 0 3.263a3.27 3.27 0 0 0 3.275 3.264H48.38a3.27 3.27 0 0 0 3.275-3.264A3.27 3.27 0 0 0 48.38 0z"/><path id="path7_fill" d="M6.113 12.181c3.376 0 6.113-2.727 6.113-6.09C12.226 2.727 9.489 0 6.113 0 2.737 0 0 2.727 0 6.09c0 3.364 2.737 6.091 6.113 6.091z"/><path id="path8_fill" d="M4.898 9.76c2.705 0 4.898-2.185 4.898-4.88S7.603 0 4.898 0C2.193 0 0 2.185 0 4.88s2.193 4.88 4.898 4.88z"/><path id="path9_fill" d="M3.732 7.436a3.725 3.725 0 0 0 3.732-3.718A3.725 3.725 0 0 0 3.732 0 3.725 3.725 0 0 0 0 3.718a3.725 3.725 0 0 0 3.732 3.718z"/><path id="path10_fill" d="M9.612 4.788a4.78 4.78 0 0 1-1.402 3.38 4.815 4.815 0 0 1-6.784.024 4.78 4.78 0 0 1-.05-6.758 4.814 4.814 0 0 1 6.784-.075A4.78 4.78 0 0 1 9.61 4.718l-4.805.07h4.806z"/><path id="path11_fill" d="M14.498 7.108c0 1.88-.76 3.684-2.114 5.016a7.322 7.322 0 0 1-5.108 2.091 7.324 7.324 0 0 1-5.124-2.054 7.04 7.04 0 0 1-2.152-5 7.036 7.036 0 0 1 2.076-5.033A7.32 7.32 0 0 1 7.17 0a7.326 7.326 0 0 1 5.14 2.018 7.042 7.042 0 0 1 2.188 4.985l-7.248.105h7.249z"/></defs></svg>
